static/images/integrations/logos/azuredevops.svg

<svg xmlns="http://www.w3.org/2000/svg" width="1069" height="1070"><path d="M0 0v390c10.762-8.761 18.894-23.051 27.424-34 17.134-21.99 34.164-44.063 51.366-66 7.593-9.683 17.215-28.815 28.3-34.351 9.231-4.61 21-6.51 30.91-9.358 19.029-5.469 37.995-11.162 57-16.715 56.027-16.371 111.86-33.455 168-49.436 22.723-6.468 45.276-13.531 68-20 5.956-1.695 21.317-3.447 24.972-8.65 2.004-2.852 1.028-8.194 1.028-11.49V0H0z" style="fill:#fff;stroke:none"/><path d="M457 0v138c0 3.714 1.034 9.432-1.028 12.722-4.536 7.239-27.005 9.608-34.972 11.998-33.612 10.082-67.317 19.863-101 29.704-48.029 14.034-95.9 28.646-144 42.435-16.366 4.691-32.693 9.53-49 14.421-6.77 2.031-15.705 3.023-21.7 6.859-8.403 5.377-14.967 18.052-21.09 25.861-15.348 19.573-33.037 38.917-46.21 60h178c28.481 0 59.823 3.717 88-.3 52.501-7.485 105.059-20.942 157-31.697 84.89-17.577 169.993-34.204 255-51.203 39.404-7.88 79.149-18.654 119-23.8v107h234V200l-57 6.718-114 14.437-42 5.269-21 1.719-32-19.093-58-35.25L538 48l-53-32.203L457 0z" style="fill:#5c97d1;stroke:none"/><path d="M459 0v1c33.955 15.873 66.025 39.6 98 59.189 56.528 34.632 113.648 68.32 170 103.235 24.208 15 48.717 29.51 73 44.387 10.364 6.349 23.196 17.729 35 20.675 6.368 1.59 15.546-1.173 22-2.062 13.968-1.924 27.999-3.593 42-5.269 37.696-4.513 75.304-9.797 113-14.31 18.78-2.249 38.09-6.455 57-6.845V0H459m377 231v2h2l-2-2M151 372v395c-32.591-15.425-66.022-29.28-99-43.86-16.147-7.139-34.641-19.046-52-22.14v369h799v-1L513 964.947l-78-28.371L388 920v149c-34.346-37.32-63.116-81.671-93.884-122C246.848 885.043 197.463 824.29 152 761l462 36.089 153 12L835 814V235l-49 9.4-96 19.4-365 73.4-117 23.6-57 11.2z" style="fill:#fff;stroke:none"/><path d="M27 356h136l69-.089L300 343l-20-1H54l-15.96 1.028L27 356m808-14v14h234v-14H835z" style="fill:#4c8ecb;stroke:none"/><path d="M24 361c60.511 0 122.654 4.14 183-.089 7.762-.544 15.237-3.293 23-3.911-12.169-5.107-33.747-1-47-1H38c-5.803 0-11.067-.816-14 5m811-5v5h234v-5H835z" style="fill:#5c97d1;stroke:none"/><path d="M0 632h151V372l54-10c-6.436-2.701-16.049-1-23-1H52c-7.699 0-23.367-2.963-29.826 1.603C-4.728 381.623 0 412.488 0 441v191m835-271v271h234V361H835z" style="fill:#4c8ecb;stroke:none"/><path d="M0 632v69l41 17.694L151 767V632H0m835 0v182c-60.453 0-121.694-9.757-182-13.911-121.406-8.36-242.594-19.818-364-28.178-45.644-3.144-91.294-8.948-137-10.911l33.424 45 13.876 16.397L217 823h852V632H835z" style="fill:#3782c3;stroke:none"/><path d="m199 823 42.349 56 78.767 103 43.511 57L388 1069V920c34.52 9.423 68.383 24.652 102 36.947 65.967 24.126 132.033 47.983 198 72.103 27.317 9.99 54.53 20.39 82 29.95 8.125 2.83 22.422 11.61 31 10.28 4.795-.75 9.374-6.15 13-9.08 9.727-7.87 19.295-15.92 29-23.81 36.128-29.37 71.791-59.318 108-88.587 27.815-22.483 55.52-45.158 83-68.05 9.64-8.028 28.03-17.785 33.97-28.842 3.64-6.773 1.03-20.314 1.03-27.911H199z" style="fill:#277abe;stroke:none"/><path d="M1068 851 937 958.424 802 1069v1h267V872l-1-21z" style="fill:#fff;stroke:none"/></svg>

<?xml version="1.0" standalone="yes"?>
<svg xmlns="http://www.w3.org/2000/svg" width="1069" height="1070">
<path style="fill:#ffffff; stroke:none;" d="M0 0L0 390C10.7623 381.239 18.8936 366.949 27.4244 356C44.5577 334.01 61.5884 311.937 78.7901 290C86.3827 280.317 96.0052 261.185 107.09 255.649C116.321 251.039 128.09 249.139 138 246.291C157.029 240.822 175.995 235.129 195 229.576C251.027 213.205 306.86 196.121 363 180.14C385.723 173.672 408.276 166.609 431 160.14C436.956 158.445 452.317 156.693 455.972 151.49C457.976 148.638 457 143.296 457 140L457 111L457 0L0 0z"/>
<path style="fill:#5c97d1; stroke:none;" d="M457 0L457 109L457 138C457 141.714 458.034 147.432 455.972 150.722C451.436 157.961 428.967 160.33 421 162.72C387.388 172.802 353.683 182.583 320 192.424C271.971 206.458 224.1 221.07 176 234.859C159.634 239.55 143.307 244.389 127 249.28C120.23 251.311 111.295 252.303 105.3 256.139C96.8967 261.516 90.333 274.191 84.2099 282C68.8619 301.573 51.1734 320.917 38 342L216 342C244.481 342 275.823 345.717 304 341.7C356.501 334.215 409.059 320.758 461 310.003C545.89 292.426 630.993 275.799 716 258.8C755.404 250.92 795.149 240.146 835 235L835 342L1069 342L1069 200L1012 206.718L898 221.155L856 226.424L835 228.143L803 209.05L745 173.8L538 48L485 15.7971L457 0z"/>
<path style="fill:#ffffff; stroke:none;" d="M459 0L459 1C492.955 16.8729 525.025 40.5994 557 60.189C613.528 94.8209 670.648 128.509 727 163.424C751.208 178.424 775.717 192.934 800 207.811C810.364 214.16 823.196 225.54 835 228.486C841.368 230.076 850.546 227.313 857 226.424C870.968 224.5 884.999 222.831 899 221.155C936.696 216.642 974.304 211.358 1012 206.845C1030.78 204.596 1050.09 200.39 1069 200L1069 0L459 0M836 231L836 233L838 233L836 231M151 372L151 767C118.409 751.575 84.9785 737.72 52 723.14C35.8532 716.001 17.3588 704.094 0 701L0 1070L799 1070L799 1069L513 964.947L435 936.576L388 920L388 1069C353.654 1031.68 324.884 987.329 294.116 947C246.848 885.043 197.463 824.29 152 761L614 797.089L767 809.089L835 814L835 235L786 244.4L690 263.8L325 337.2L208 360.8L151 372z"/>
<path style="fill:#4c8ecb; stroke:none;" d="M27 356L163 356L232 355.911L300 343L280 342L238 342L91 342L54 342L38.0394 343.028L27 356M835 342L835 356L1069 356L1069 342L835 342z"/>
<path style="fill:#5c97d1; stroke:none;" d="M24 361C84.5111 361 146.654 365.14 207 360.911C214.762 360.367 222.237 357.618 230 357C217.831 351.893 196.253 356 183 356L72 356L38 356C32.1975 356 26.9333 355.184 24 361M835 356L835 361L1069 361L1069 356L835 356z"/>
<path style="fill:#4c8ecb; stroke:none;" d="M0 632L151 632L151 372L205 362C198.564 359.299 188.951 361 182 361L130 361L52 361C44.3012 361 28.6331 358.037 22.1736 362.603C-4.72809 381.623 0 412.488 0 441L0 632M835 361L835 632L1069 632L1069 361L835 361z"/>
<path style="fill:#3782c3; stroke:none;" d="M0 632L0 701L41 718.694L151 767L151 632L0 632M835 632L835 814C774.547 814 713.306 804.243 653 800.089C531.594 791.729 410.406 780.271 289 771.911C243.356 768.767 197.706 762.963 152 761L185.424 806L199.3 822.397L217 823L256 823L392 823L1069 823L1069 632L835 632z"/>
<path style="fill:#277abe; stroke:none;" d="M199 823L241.349 879L320.116 982L363.627 1039L388 1069L388 920C422.52 929.423 456.383 944.652 490 956.947C555.967 981.073 622.033 1004.93 688 1029.05C715.317 1039.04 742.53 1049.44 770 1059C778.125 1061.83 792.422 1070.61 801 1069.28C805.795 1068.53 810.374 1063.13 814 1060.2C823.727 1052.33 833.295 1044.28 843 1036.39C879.128 1007.02 914.791 977.072 951 947.803C978.815 925.32 1006.52 902.645 1034 879.753C1043.64 871.725 1062.03 861.968 1067.97 850.911C1071.61 844.138 1069 830.597 1069 823L199 823z"/>
<path style="fill:#ffffff; stroke:none;" d="M1068 851L937 958.424L802 1069L802 1070L1069 1070L1069 916L1069 872L1068 851z"/>
</svg>
